svg/fluentui-system-icons/ic_fluent_notebook_add_20_filled.svg

<svg width="20" height="20" viewBox="0 0 20 20" fill="none" xmlns="http://www.w3.org/2000/svg">
<path d="M5 2C3.89543 2 3 2.89543 3 4V9.59971C3.75007 9.21628 4.59978 9 5.5 9C8.53757 9 11 11.4624 11 14.5C11 15.8296 10.5282 17.0491 9.74284 18H13C14.1046 18 15 17.1046 15 16V4C15 2.89543 14.1046 2 13 2H5ZM5 5C5 4.72386 5.22386 4.5 5.5 4.5H12.5C12.7761 4.5 13 4.72386 13 5V7C13 7.27614 12.7761 7.5 12.5 7.5H5.5C5.22386 7.5 5 7.27614 5 7V5ZM16 6H16.5C16.7761 6 17 6.22386 17 6.5V8C17 8.27614 16.7761 8.5 16.5 8.5H16V6ZM16.5 9.5H16V12H16.5C16.7761 12 17 11.7761 17 11.5V10C17 9.72386 16.7761 9.5 16.5 9.5ZM16 13H16.5C16.7761 13 17 13.2239 17 13.5V15C17 15.2761 16.7761 15.5 16.5 15.5H16V13ZM10 14.5C10 16.9853 7.98528 19 5.5 19C3.01472 19 1 16.9853 1 14.5C1 12.0147 3.01472 10 5.5 10C7.98528 10 10 12.0147 10 14.5ZM6 12.5C6 12.2239 5.77614 12 5.5 12C5.22386 12 5 12.2239 5 12.5V14H3.5C3.22386 14 3 14.2239 3 14.5C3 14.7761 3.22386 15 3.5 15H5L5 16.5C5 16.7761 5.22386 17 5.5 17C5.77614 17 6 16.7761 6 16.5V15H7.5C7.77614 15 8 14.7761 8 14.5C8 14.2239 7.77614 14 7.5 14H6V12.5Z" fill="#212121"/>
</svg>

<svg xmlns="http://www.w3.org/2000/svg" width="20" height="20"><path d="M5 2a2 2 0 0 0-2 2v5.6A5.5 5.5 0 0 1 9.743 18H13a2 2 0 0 0 2-2V4a2 2 0 0 0-2-2H5Zm0 3a.5.5 0 0 1 .5-.5h7a.5.5 0 0 1 .5.5v2a.5.5 0 0 1-.5.5h-7A.5.5 0 0 1 5 7V5Zm11 1h.5a.5.5 0 0 1 .5.5V8a.5.5 0 0 1-.5.5H16V6Zm.5 3.5H16V12h.5a.5.5 0 0 0 .5-.5V10a.5.5 0 0 0-.5-.5ZM16 13h.5a.5.5 0 0 1 .5.5V15a.5.5 0 0 1-.5.5H16V13Zm-6 1.5a4.5 4.5 0 1 1-9 0 4.5 4.5 0 0 1 9 0Zm-4-2a.5.5 0 0 0-1 0V14H3.5a.5.5 0 0 0 0 1H5v1.5a.5.5 0 0 0 1 0V15h1.5a.5.5 0 0 0 0-1H6v-1.5Z"/></svg>
